X: 6
T:Bobby &amp; Joan
M:6/8
L:1/8
O:Fieldtown
P:A(AB2)4
K:A
P:A
|:E|A2f e2d|efe dcB|AGA Bcd|e2c A2:|
P:B
|:A|BcB F2F|BcB F2E|AGA Bcd|e2c A2:|
</abc>
